resources/svg/fingerprint-2-fill.svg

<svg fill="currentColor" viewBox="0 0 24 24" xmlns="http://www.w3.org/2000/svg"><path d="M12 1C16.9706 1 21 5.02944 21 10V14C21 17.0383 19.4945 19.7249 17.1887 21.3546C17.7164 19.6635 18 17.8649 18 16L17.9996 13.999H15.9996L16 16L15.997 16.3149C15.9535 18.5643 15.4459 20.7 14.5657 22.6304C13.7516 22.8705 12.8909 23 12 23C11.6587 23 11.3218 22.981 10.9903 22.944C12.2637 20.9354 13 18.5537 13 16V9H11V16L10.9963 16.2884C10.9371 18.5891 10.1714 20.7142 8.90785 22.4547C7.9456 22.1028 7.05988 21.5909 6.28319 20.9515C7.35876 19.5892 8 17.8695 8 16V10L8.0049 9.80036C8.03767 9.1335 8.23376 8.50957 8.554 7.96773L7.10935 6.52332C6.41083 7.50417 6 8.70411 6 10V16L5.99586 16.2249C5.95095 17.4436 5.54259 18.5694 4.87532 19.4973C3.69863 17.9762 3 16.0697 3 14V10C3 5.02944 7.02944 1 12 1ZM12 4C10.7042 4 9.50434 4.41077 8.52353 5.10921L9.96848 6.55356C10.5639 6.20183 11.2584 6 12 6C14.2091 6 16 7.79086 16 10V12H18V10C18 6.68629 15.3137 4 12 4Z"/></svg>

<svg xmlns="http://www.w3.org/2000/svg" viewBox="0 0 24 24" fill="currentColor">
    <g>
        <path fill="none" d="M0 0h24v24H0z"/>
        <path d="M12 1a9 9 0 0 1 9 9v4a8.99 8.99 0 0 1-3.81 7.354c.474-1.522.75-3.131.802-4.797L18 16v-2.001h-2V16l-.003.315a15.932 15.932 0 0 1-1.431 6.315 9.045 9.045 0 0 1-3.574.314 12.935 12.935 0 0 0 2.001-6.52L13 16V9h-2v7l-.004.288a10.95 10.95 0 0 1-2.087 6.167 8.98 8.98 0 0 1-2.626-1.504 7.959 7.959 0 0 0 1.71-4.623L8 16v-6l.005-.2a3.978 3.978 0 0 1 .435-1.625l.114-.207-1.445-1.445a5.969 5.969 0 0 0-1.102 3.18L6 10v6l-.004.225a5.968 5.968 0 0 1-1.121 3.273A8.958 8.958 0 0 1 3 14v-4a9 9 0 0 1 9-9zm0 3c-1.196 0-2.31.35-3.246.953l-.23.156 1.444 1.445a3.977 3.977 0 0 1 1.787-.547L12 6l.2.005a4 4 0 0 1 3.795 3.789L16 10v2h2v-2a6 6 0 0 0-6-6z"/>
    </g>
</svg>
